!!!OTL: Untreue. / b. Einfachere Art. (Nach Werlin.)
!!!ARE: Europa, Mitteleuropa, Deutschland
!!!SCT: A0215B
!!!YEM: Copyright 1995, estate of Helmut Schaffrath.
**kern
*M4/4
*met(c)
*clefC4
*k[]
*e:
=1
{2r
4r
4A
=2
4A
4A
4c
4c
=3
2B
4A}
{4A
=4
4A
4E
4G
!LO:SIC:o:4f:v
4F#
=5
2E
4r}
=:|
{4c
=6
4c
4B
4c
4d
=7
2A/
4G}
{4c
=8
4B
4c
4d
4B
=9
2c
4r}
{4c
=10
4d
4d
4e
4d
=11
(4c
8BL
8AJ
2B)
=12
2A
4r}
{4B
=13
4c
4G
4A
!LO:SIC:o:4f:v
4F#
=14
1E}
==
!!!GTL: Liebeslieder
!!!AGN: Romanze, Ballade, Lied
!! Vereinfacht bei Werlin 1646 S. 242.
!!!ONB: ESAC (Essen Associative Code) Database: ALTDEU
!!!AMT: simple quadruple
!!!AIN: vox
!!!EED: Helmut Schaffrath
!!!EEV: 1.0
!!!URL-scan: https://rosdok.uni-rostock.de/mcrviewer/recordIdentifier/rosdok_ppn738218359/iview2/phys_0372.iview2?x=-1816.6124862433817&y=1043.6859629936516&scale=0.262872707487861&rotation=0&layout=singlePageLayout
!!!ENC: Anna Maria Matuszewska
!!!EEV: 2024/08/03
*-
